localPackages/DesignSystem/Sources/DesignSystem/Resources/Assets.xcassets/IconSet/ic-earth.imageset/ic-earth.svg

<svg width="24" height="24" viewBox="0 0 24 24" fill="none" xmlns="http://www.w3.org/2000/svg">
<g id="ic-earth">
<path id="Icon" fill-rule="evenodd" clip-rule="evenodd" d="M20.9002 13.3449C20.251 17.6775 16.5135 21 12 21C7.58266 21 3.90861 17.8176 3.14549 13.6204C4.02219 14.4769 5.2754 14.8598 6.50104 14.6146L7.04065 14.5067C7.42377 14.4301 7.80154 14.6604 7.90888 15.0361L8.81504 18.2077C9.01686 18.9141 9.55425 19.4753 10.2512 19.7076C11.4811 20.1176 12.7996 19.3938 13.1141 18.1361L13.337 17.2445C13.3822 17.0635 13.4933 16.9059 13.6485 16.8024L15.0846 15.845C15.4104 15.6278 15.6739 15.3293 15.849 14.9791L15.9373 14.8024C16.3704 13.9362 16.2007 12.89 15.5159 12.2052L14.4697 11.159C14.0477 10.7371 13.4754 10.5 12.8787 10.5H11.5389C11.4435 10.5 11.3489 10.4818 11.2603 10.4464L9.32559 9.67246C9.09316 9.57949 9.03151 9.27915 9.20853 9.10213C9.27392 9.03674 9.36262 9 9.4551 9H11.0061C11.2829 9 11.5559 8.93555 11.8035 8.81176C12.892 8.26751 13.1275 6.81679 12.2669 5.95625L11.3109 5.0002L13.1199 4.6987C13.868 4.57401 14.4783 4.08899 14.7852 3.43925C16.1789 3.89237 17.4234 4.67638 18.4259 5.69854L17.3282 6.24738C16.3267 6.74813 15.8458 7.9091 16.1999 8.97135L17.0132 11.4114C17.2685 12.1774 17.9147 12.7478 18.7065 12.9062L20.9002 13.3449ZM19.4064 6.88532C20.3821 8.29558 20.9655 9.99804 20.9985 11.8349L19.0007 11.4353C18.7368 11.3825 18.5214 11.1923 18.4362 10.937L17.6229 8.49701C17.5049 8.14293 17.6652 7.75594 17.999 7.58902L19.4064 6.88532ZM12 3C12.4069 3 12.8075 3.027 13.2001 3.07932C13.1065 3.14961 12.9954 3.19875 12.8733 3.2191L11.0643 3.52061C9.8608 3.72119 9.38749 5.19815 10.2502 6.06086L11.2062 7.01691C11.3428 7.15349 11.3055 7.38374 11.1327 7.47012C11.0934 7.48977 11.0501 7.5 11.0061 7.5H9.4551C8.96479 7.5 8.49457 7.69477 8.14787 8.04147C7.20939 8.97995 7.53622 10.5723 8.76851 11.0652L10.7032 11.8391C10.969 11.9454 11.2526 12 11.5389 12H12.8787C13.0776 12 13.2684 12.079 13.409 12.2197L14.4552 13.2658C14.6835 13.4941 14.7401 13.8428 14.5957 14.1316L14.5073 14.3083C14.449 14.425 14.3611 14.5245 14.2525 14.5969L12.8165 15.5543C12.3508 15.8648 12.0175 16.3377 11.8817 16.8807L11.6589 17.7723C11.5563 18.1823 11.1265 18.4183 10.7255 18.2846C10.4983 18.2089 10.3231 18.0259 10.2573 17.7956L9.35117 14.624C9.02916 13.497 7.89585 12.806 6.74647 13.0359L6.20686 13.1438C5.35722 13.3137 4.48549 12.9806 3.9656 12.2875L3.04807 11.0641C3.5162 6.53333 7.34547 3 12 3ZM12 22.5C17.799 22.5 22.5 17.799 22.5 12C22.5 6.20101 17.799 1.5 12 1.5C6.20101 1.5 1.5 6.20101 1.5 12C1.5 17.799 6.20101 22.5 12 22.5Z" fill="#0F0F0F"/>
</g>
</svg>

<svg xmlns="http://www.w3.org/2000/svg" width="24" height="24" viewBox="0 0 24 24">
  <g class="ic-earth">
    <path fill-rule="evenodd" d="M20.9 13.345C20.251 17.677 16.514 21 12 21c-4.417 0-8.091-3.182-8.855-7.38a3.75 3.75 0 0 0 3.356.995l.54-.108a.75.75 0 0 1 .868.53l.906 3.17a2.225 2.225 0 0 0 4.3-.07l.222-.893a.75.75 0 0 1 .312-.442l1.436-.957a2.25 2.25 0 0 0 .764-.866l.088-.177a2.25 2.25 0 0 0-.421-2.597L14.47 11.16a2.25 2.25 0 0 0-1.591-.659h-1.34a.751.751 0 0 1-.279-.054l-1.934-.774A.349.349 0 0 1 9.456 9h1.55a1.783 1.783 0 0 0 1.26-3.044L11.312 5l1.808-.3a2.25 2.25 0 0 0 1.665-1.26 9.001 9.001 0 0 1 3.64 2.26l-1.097.548A2.25 2.25 0 0 0 16.2 8.971l.813 2.44a2.25 2.25 0 0 0 1.693 1.495l2.194.439Zm-1.494-6.46A8.956 8.956 0 0 1 21 11.835l-1.998-.4a.75.75 0 0 1-.565-.498l-.813-2.44A.75.75 0 0 1 18 7.589l1.407-.704ZM12 3c.407 0 .807.027 1.2.08a.748.748 0 0 1-.327.14l-1.809.3c-1.203.201-1.677 1.678-.814 2.54l.956.957a.283.283 0 0 1-.2.483h-1.55a1.849 1.849 0 0 0-.687 3.565l1.934.774c.266.106.55.161.836.161h1.34a.75.75 0 0 1 .53.22l1.046 1.046a.75.75 0 0 1 .14.866l-.088.176a.75.75 0 0 1-.255.289l-1.436.957a2.25 2.25 0 0 0-.934 1.327l-.223.891a.726.726 0 0 1-1.402.024l-.906-3.172a2.25 2.25 0 0 0-2.605-1.588l-.54.108a2.25 2.25 0 0 1-2.24-.857l-.918-1.223A9.001 9.001 0 0 1 12 3Zm0 19.5c5.799 0 10.5-4.701 10.5-10.5S17.799 1.5 12 1.5 1.5 6.201 1.5 12 6.201 22.5 12 22.5Z" class="Icon"/>
  </g>
</svg>
